packages/core/src/svgs/tokens/branded/PIKA.svg

<svg width="24" height="24" viewBox="0 0 24 24" fill="none" xmlns="http://www.w3.org/2000/svg">
<path fill-rule="evenodd" clip-rule="evenodd" d="M10.2847 3.32121C8.83017 3.76363 7.75745 5.27272 7.75745 8.45455C7.75745 11.4969 8.43623 12.9333 9.72714 13.9818C9.83773 14.0735 9.97745 14.1228 10.1211 14.1211C10.4605 14.1211 10.7877 13.897 10.7877 13.5152V5.29696C10.7877 4.12121 11.5331 2 14.1392 2C17.3937 2 19.8787 5.0606 19.8787 8.45455C19.8787 11.6969 18.1817 15.1393 13.7333 16.0848C13.3393 16.1636 13.212 16.4969 13.212 16.8848V20.8666C13.212 21.4909 12.8059 22 11.9998 22C11.3575 22 10.7877 21.4909 10.7877 20.8666V16.8787C10.7877 16.4908 10.4362 16.1636 10.0544 16.0666C7.75138 15.4606 4.12109 13.3394 4.12109 8.45455C4.12109 3.54545 7.84836 2.15151 10.1514 2.00607C10.2345 2.00188 10.3175 2.01486 10.3955 2.04422C10.4734 2.07356 10.5444 2.11865 10.604 2.17664C10.6639 2.23463 10.711 2.30431 10.7425 2.38132C10.7742 2.45834 10.7894 2.54102 10.7877 2.62424C10.7877 2.92726 10.5635 3.19394 10.2847 3.32121ZM13.212 13.2302V5.07877C13.212 4.01817 14.2726 3.38788 14.9999 4.16363C15.9696 5.19393 16.8483 6.79999 16.8483 9.04848C16.8483 11.7697 15.5514 13.2848 14.3756 14.006C13.824 14.3454 13.212 13.8848 13.212 13.2302Z" fill="#FCE74F"/>
</svg>

<svg xmlns="http://www.w3.org/2000/svg" width="24" height="24" fill="none" viewBox="0 0 24 24">
    <path fill="#FCE74F" fill-rule="evenodd" d="M10.285 3.321c-1.455.443-2.528 1.952-2.528 5.134 0 3.042.68 4.478 1.97 5.527.11.091.25.14.394.14.34 0 .667-.225.667-.607V5.297c0-1.176.745-3.297 3.351-3.297 3.255 0 5.74 3.06 5.74 6.455 0 3.242-1.697 6.684-6.146 7.63-.394.079-.521.412-.521.8v3.982C13.212 21.49 12.806 22 12 22c-.643 0-1.212-.51-1.212-1.133v-3.988c0-.388-.352-.715-.734-.812-2.303-.606-5.933-2.728-5.933-7.612 0-4.91 3.727-6.303 6.03-6.449a.606.606 0 0 1 .637.618c0 .303-.225.57-.503.697m2.927 9.91V5.078c0-1.06 1.06-1.691 1.788-.915.97 1.03 1.848 2.636 1.848 4.884 0 2.722-1.297 4.237-2.472 4.958-.552.34-1.164-.121-1.164-.776" clip-rule="evenodd"/>
</svg>
